X:1
A: (Belgium)
B: manuscript of Houssa (ca 1840)
C: Houssa
F: http://users.skynet.be/jan.doumen
H:
T: Marie trempe ton pain
P: (ABAC)x4
N:
S: Lous Spagna (Ceroux-Mousty)
Z: Jan Doumen (Schaarbeek 04 June 2001)
M: 6/8
L: 1/4
K: Des
P: A
G F/2|E/2E/2E/2GF/2|E/2E/2E/2FF/2|BA/2 G/2G/2G/2|E3/2G F/2|E/2E/2E/2GF/2|E/2E/2E/2FF/2|BB/2E3/2|E3/2||
P: B
E/2|FF/2 A/2G/2F/2|EE/2 G/2F/2E/2|^D/2F/2A/2 c/2B/2A/2|A/2G/2F/2 E3/2|FF/2 A/2G/2F/2|EE/2 E/2F/2G/2|F/2A/2c/2 BB/2|E3/2||
P: C
B/2A/2G/2 G/2F/2G/2|^G/2A/2A/2 A3/2|c/2B/2A/2 A/2^G/2A/2|A/2B/2B/2 B3/2|d3/2B3/2|G3/2 E3/2|D/2E/2F/2 G/2A/2F/2|A3/2 G3/2||
